X:1
T:Title
%%score ( 1 2 ) { 3 | 4 }
L:1/8
Q:1/4=100
M:4/4
K:G
V:1 treble nm="Grand Piano, Soprano"
V:2 treble 
V:3 bass nm="Choir Pad, Hamsher High, 97.97 D"
V:4 bass 
V:1
 GA [DB]2 D2 D2 | [DG][GB] [GB]2 [FA]2 [FA]2 | [FA][GB] [Ac]2 [Ac]>[Fc] D2 | [Dc]2 [DB]6 | %4
w: By~John~Robson~Sweney,~1882 * * * *||||
 [GB][Ac] [Gd]2 [Gd]2 [Gd]2 | [Gc][GB] [Gc]2 [Gc]2 [Gc]2 | [EA]2 [DG]2 [DF][DG] [GB]2 | [FA]2 G6 | %8
w: ||||
 [GB]2 [GB]2- [GB][FA] [FA]2 | [GB][Ac] [Ac]2 [GB]2 [GB]2 | [Gd]2 [Fd]2 [Fd][Fd] [G^c]2 | %11
w: |||
 [G^c]2 d4 d=c | [GB][Ac] [Gd]2 [Gd]2 [Gd]2 | [Gc][GB] [Gc]2 [Gc]2 [Gc]2 | %14
w: |||
 [EA]2 [DG]2 [DF][DG] [GB]2 | [FA]2 G6- | G2 z2 z4 |] %17
w: |||
V:2
 D2 z2 z4 | x8 | x8 | x8 | x8 | x8 | x8 | x8 | x8 | x8 | x8 | z2 F6 | x8 | x8 | x8 | x8 | x8 |] %17
V:3
 B,C D2 B,2 B,2 | B,[K:treble]D D2 D2 D2 | D2 D2 D>[K:bass]A, F,2 | A,2 G,6 | D2 B,2 B,2 B,2 | %5
 CD E2 E2 E2 | C2[K:bass] B,2 A,B, D2 | C2 B,6 | D2 D2- DD D2 | DD D2 D2 D2 | B,2 A,2 A,A, A,2 | %11
 A,2 A,6 | D2 B,2 B,2 B,2 | CD E2 E2 E2 | C2[K:bass] B,2 A,B, D2 | C2 B,6- | B,2 z2 z4 |] %17
V:4
 G,2 G,2 G,2 G,2 | G,G, D,2 D,2 D,2 | D,2 D,2 D,>D, D,2 | F,2 z2 z4 | G,2 G,2 G,2 G,2 | %5
 E,D, C,2 C,2 C,2 | C,2 D,2 D,D, D,2 | D,2 G,,6 | G,2 D,2- D,D, D,2 | D,D, G,2 G,2 G,2 | %10
 G,2 z2 z2 A,,2 | A,,2 D,6 | D,2 G,2 G,2 G,2 | E,D, C,2 C,2 C,2 | C,2 D,2 D,D, D,2 | D,2 G,,6- | %16
 G,,2 z2 z4 |] %17

